dist/img/icons/share.svg

<svg width="21" height="22" viewBox="0 0 21 22" fill="none" xmlns="http://www.w3.org/2000/svg">
<path d="M17.0128 14.1337C15.7315 14.1337 14.589 14.7367 13.8582 15.6686L7.73855 12.2928C7.88194 11.8862 7.96057 11.4477 7.96057 10.9954C7.96057 10.5386 7.88194 10.1047 7.73392 9.69352L13.8489 6.32226C14.5751 7.25872 15.7222 7.86628 17.0082 7.86628C19.2007 7.86628 20.9907 6.10299 20.9907 3.93314C20.9907 1.76329 19.2053 0 17.0082 0C14.811 0 13.0256 1.76329 13.0256 3.93314C13.0256 4.38995 13.1042 4.82849 13.2522 5.23505L7.14185 8.60631C6.41564 7.66528 5.2685 7.06229 3.9826 7.06229C1.79009 7.06229 0 8.82558 0 10.9954C0 13.1653 1.79009 14.9286 3.98722 14.9286C5.27313 14.9286 6.42026 14.321 7.1511 13.38L13.2661 16.7558C13.1181 17.1669 13.0348 17.6101 13.0348 18.0669C13.0348 20.2321 14.8203 22 17.0174 22C19.2145 22 21 20.2367 21 18.0669C21 15.897 19.2099 14.1337 17.0128 14.1337ZM17.0128 1.23796C18.5207 1.23796 19.7465 2.4485 19.7465 3.93771C19.7465 5.42691 18.5207 6.63746 17.0128 6.63746C15.5048 6.63746 14.2791 5.42691 14.2791 3.93771C14.2791 2.4485 15.5095 1.23796 17.0128 1.23796ZM3.98722 13.6952C2.4793 13.6952 1.25352 12.4846 1.25352 10.9954C1.25352 9.50623 2.4793 8.29568 3.98722 8.29568C5.49515 8.29568 6.72093 9.50623 6.72093 10.9954C6.72093 12.4846 5.49053 13.6952 3.98722 13.6952ZM17.0128 20.762C15.5048 20.762 14.2791 19.5515 14.2791 18.0623C14.2791 16.5731 15.5048 15.3625 17.0128 15.3625C18.5207 15.3625 19.7465 16.5731 19.7465 18.0623C19.7465 19.5515 18.5207 20.762 17.0128 20.762Z" fill="black"/>
</svg>

<svg width="21" height="22" viewBox="0 0 21 22" fill="none" xmlns="http://www.w3.org/2000/svg"><path d="M17.013 14.134a4.004 4.004 0 0 0-3.155 1.535l-6.12-3.376c.144-.407.223-.845.223-1.298 0-.456-.08-.89-.227-1.301l6.115-3.372a3.994 3.994 0 0 0 3.16 1.544c2.192 0 3.982-1.763 3.982-3.933S19.205 0 17.008 0s-3.982 1.763-3.982 3.933c0 .457.078.895.226 1.302l-6.11 3.371a3.98 3.98 0 0 0-3.16-1.544C1.79 7.062 0 8.826 0 10.995c0 2.17 1.79 3.934 3.987 3.934a4 4 0 0 0 3.164-1.549l6.115 3.376a3.873 3.873 0 0 0-.231 1.31c0 2.166 1.785 3.934 3.982 3.934C19.215 22 21 20.237 21 18.067s-1.79-3.933-3.987-3.933zm0-12.896c1.508 0 2.733 1.21 2.733 2.7 0 1.489-1.225 2.7-2.733 2.7s-2.734-1.211-2.734-2.7c0-1.49 1.23-2.7 2.734-2.7zM3.987 13.695c-1.508 0-2.733-1.21-2.733-2.7 0-1.489 1.225-2.7 2.733-2.7s2.734 1.211 2.734 2.7c0 1.49-1.23 2.7-2.734 2.7zm13.026 7.067c-1.508 0-2.734-1.21-2.734-2.7 0-1.489 1.226-2.7 2.734-2.7s2.733 1.211 2.733 2.7c0 1.49-1.225 2.7-2.733 2.7z" fill="#000"/></svg>
